pictures/coins-stacked.svg

<svg width="24" height="24" viewBox="0 0 24 24" fill="none" xmlns="http://www.w3.org/2000/svg">
  <path d="M12 17C12 19.7614 14.2386 22 17 22C19.7614 22 22 19.7614 22 17C22 14.2386 19.7614 12 17 12C14.2386 12 12 14.2386 12 17ZM12 17C12 15.8742 12.3721 14.8353 13 13.9995V5M12 17C12 17.8254 12.2 18.604 12.5541 19.2901C11.7117 20.0018 9.76584 20.5 7.5 20.5C4.46243 20.5 2 19.6046 2 18.5V5M13 5C13 6.10457 10.5376 7 7.5 7C4.46243 7 2 6.10457 2 5M13 5C13 3.89543 10.5376 3 7.5 3C4.46243 3 2 3.89543 2 5M2 14C2 15.1046 4.46243 16 7.5 16C9.689 16 11.5793 15.535 12.4646 14.8618M13 9.5C13 10.6046 10.5376 11.5 7.5 11.5C4.46243 11.5 2 10.6046 2 9.5" stroke="#D92E15" stroke-width="2" stroke-linecap="round" stroke-linejoin="round"/>
  </svg>

<svg width="24" height="24" fill="none" xmlns="http://www.w3.org/2000/svg"><path d="M12 17a5 5 0 1 0 10 0 5 5 0 0 0-10 0Zm0 0c0-1.126.372-2.165 1-3V5m-1 12c0 .825.2 1.604.554 2.29-.842.712-2.788 1.21-5.054 1.21-3.038 0-5.5-.895-5.5-2V5m11 0c0 1.105-2.462 2-5.5 2S2 6.105 2 5m11 0c0-1.105-2.462-2-5.5-2S2 3.895 2 5m0 9c0 1.105 2.462 2 5.5 2 2.189 0 4.08-.465 4.965-1.138M13 9.5c0 1.105-2.462 2-5.5 2S2 10.605 2 9.5" stroke="#D92E15" stroke-width="2" stroke-linecap="round" stroke-linejoin="round"/></svg>
